X: 33497
T: Raheen, The
R: reel
M: 4/4
K: Dmajor
D2 DF EDB,A,|D2 DE FA A/A/A|Beef e2 de|f2 ed BAFE|
D/D/D DF EDB,A,|DCDE FA A/A/A|Beef e/f/e dB|1 AFEF DGFE:|2 AFEF D2 FG||
ABde ~f3g|afdf edBd|ABde fedf|afdf e/f/e dB|
ABde ~f3g|afdf edBA|dcdB AddB|1 AFEF D2 FG:|2 AFEF DGFE||

